X: 357
T: A Smile From Sile
R: jig
M: 6/8
K: Dmajor
|:ABA ADD|AFA dAd|efg age|dcA EFG|
~A3 DAF|A z A EFG|AFA efg|1 ecA dcB:|2 ecA d2 e||
|:fed ede|f z a a^ga|fed edc|dAF EFG|
~A3 DAF|A z A EFG|AFA efg|1 ecA d2 e:|2 ecA d3||

